U-commodities/img/partners/green-vinzer.svg

<svg width="160" height="40" viewBox="0 0 160 40" fill="none" xmlns="http://www.w3.org/2000/svg">
<path d="M6.01786 11.4046H1.93555V7.32227H6.01786V11.4046Z" fill="#8BB539"/>
<path fill-rule="evenodd" clip-rule="evenodd" d="M11.5222 11.4046H15.6056V7.32227H11.5222V11.4046ZM15.1355 10.9355H11.9913V7.79135H15.1355V10.9355Z" fill="#8BB539"/>
<path d="M21.111 11.4046H25.1933V7.32227H21.111V11.4046Z" fill="#8BB539"/>
<path fill-rule="evenodd" clip-rule="evenodd" d="M6.01786 22.0414H1.93555V17.9591H6.01786V22.0414ZM2.40463 21.5723H5.54772V18.4282H2.40463V21.5723Z" fill="#8BB539"/>
<path d="M15.6056 22.0414H11.5222V17.9591H15.6056V22.0414Z" fill="#8BB539"/>
<path d="M21.111 22.0414H25.1933V17.9591H21.111V22.0414Z" fill="#8BB539"/>
<path fill-rule="evenodd" clip-rule="evenodd" d="M6.01787 32.6783H1.93555V28.597H6.01787V32.6783ZM2.40463 32.2092H5.54772V29.0661H2.40463V32.2092Z" fill="#8BB539"/>
<path fill-rule="evenodd" clip-rule="evenodd" d="M15.6056 32.6783H11.5222V28.597H15.6056V32.6783ZM15.1355 32.2092V29.0661H11.9913V32.2092H15.1355Z" fill="#8BB539"/>
<path d="M21.111 32.6783V28.597H25.1933V32.6783H21.111Z" fill="#8BB539"/>
<path d="M43.0524 24.7514L48.8156 7.32227H54.881L45.8014 32.6783H39.9579L30.9006 7.32227H37.0853L43.0524 24.7514Z" fill="#8BB539"/>
<path d="M56.2344 7.32227H61.9448V32.6783H56.2344V7.32227Z" fill="#8BB539"/>
<path d="M132.172 7.32227V12.2244H118.884V17.5492H132.172V22.4514H118.884V27.7761H132.172V32.6783H113.165V7.32227H132.172Z" fill="#8BB539"/>
<path d="M90.0382 7.32227H110.773V12.2244L97.5858 27.7761H110.772V32.6783H90.0371V27.7761L103.226 12.2244H90.0382V7.32227Z" fill="#8BB539"/>
<path d="M81.9285 7.32227H87.6473V32.6783H81.9676L71.0719 17.283V32.6783H65.353V7.32438H71.0286L81.9285 22.7218V7.32227Z" fill="#8BB539"/>
<path fill-rule="evenodd" clip-rule="evenodd" d="M158.063 32.6783H151.405L145.835 23.0282H140.604V32.6772H134.886L134.883 7.32227H148.169C152.346 7.32227 155.733 10.8383 155.733 15.1752C155.74 16.552 155.385 17.9062 154.704 19.1028C154.023 20.2993 153.04 21.2962 151.853 21.9939L158.063 32.6783ZM147.355 12.2244H140.605V18.126H147.355C148.824 18.126 150.015 16.6998 150.015 15.1752C150.015 13.6507 148.824 12.2244 147.355 12.2244Z" fill="#8BB539"/>
</svg>

<svg width="160" height="40" fill="none" xmlns="http://www.w3.org/2000/svg"><path d="M6.018 11.405H1.936V7.322h4.082v4.083z" fill="#8BB539"/><path fill-rule="evenodd" clip-rule="evenodd" d="M11.522 11.405h4.084V7.322h-4.084v4.083zm3.614-.47H11.99V7.791h3.145v3.144z" fill="#8BB539"/><path d="M21.111 11.405h4.082V7.322h-4.082v4.083z" fill="#8BB539"/><path fill-rule="evenodd" clip-rule="evenodd" d="M6.018 22.041H1.936V17.96h4.082v4.082zm-3.613-.469h3.143v-3.144H2.405v3.144z" fill="#8BB539"/><path d="M15.606 22.041h-4.084V17.96h4.084v4.082zm5.505 0h4.082V17.96h-4.082v4.082z" fill="#8BB539"/><path fill-rule="evenodd" clip-rule="evenodd" d="M6.018 32.678H1.936v-4.081h4.082v4.081zm-3.613-.469h3.143v-3.143H2.405v3.143zm13.201.469h-4.084v-4.081h4.084v4.081zm-.47-.469v-3.143H11.99v3.143h3.145z" fill="#8BB539"/><path d="M21.111 32.678v-4.081h4.082v4.081h-4.082zm21.941-7.927l5.764-17.429h6.065l-9.08 25.356h-5.843L30.9 7.322h6.184l5.967 17.43zM56.234 7.322h5.71v25.356h-5.71V7.322zm75.938 0v4.902h-13.288v5.325h13.288v4.902h-13.288v5.325h13.288v4.902h-19.007V7.322h19.007zm-42.134 0h20.735v4.902L97.586 27.776h13.186v4.902H90.037v-4.902l13.189-15.552H90.038V7.322zm-8.11 0h5.72v25.356h-5.68L71.072 17.283v15.395h-5.719V7.324h5.676l10.9 15.398v-15.4z" fill="#8BB539"/><path fill-rule="evenodd" clip-rule="evenodd" d="M158.063 32.678h-6.658l-5.57-9.65h-5.231v9.65h-5.718l-.003-25.356h13.286c4.177 0 7.564 3.516 7.564 7.853a7.86 7.86 0 01-3.88 6.819l6.21 10.684zm-10.708-20.454h-6.75v5.902h6.75c1.469 0 2.66-1.426 2.66-2.95 0-1.525-1.191-2.952-2.66-2.952z" fill="#8BB539"/></svg>
